images/icons/gem.svg

<?xml version="1.0" encoding="UTF-8"?>
<svg xmlns="http://www.w3.org/2000/svg" width="26" height="23" viewBox="0 0 26 23" fill="none"><path d="M19.2338 0.587094L13.2473 7.99659L7.21179 0.587094H19.2338ZM25.8091 8.43821H14.8666L20.5096 1.51941L25.8091 8.43821ZM5.93598 1.51941L11.579 8.43821H0.685547L5.93598 1.51941ZM12.6585 22.3249L0.734616 10.0084H25.711L13.7871 22.3249C13.6399 22.5212 13.4436 22.5702 13.2473 22.5702C13.002 22.5702 12.8057 22.5212 12.6585 22.3249Z" fill="#FED09C"/></svg>

<svg xmlns="http://www.w3.org/2000/svg" width="26" height="23" fill="none"><path fill="#FED09C" d="m19.234.587-5.987 7.41L7.212.587h12.022Zm6.575 7.851H14.867L20.51 1.52l5.3 6.92ZM5.936 1.52l5.643 6.92H.686l5.25-6.92Zm6.723 20.806L.735 10.008H25.71L13.787 22.325c-.147.196-.343.245-.54.245-.245 0-.441-.049-.588-.245Z"/></svg>
